X:2
T:Kadril van Kampenhout
T:Tweede figuur "Vantkat"
C:Trad.
O:Vlaanderen
Z:Bart Vanhaverbeke 
P:ABCDA
L:1/8
M:2/4
K:F
P:A
FC AF | c=B _BA | Gc de | (d2 c) z | FC AF | c=B _BA | Gc de | f z F z |]
P:B
A3 G | EG FD | (C4 | C)C DE | F3 A | c=B _BA | (G4 | D2) z2 |
B3 A | GF ED | (C4 | C) z d2 | c3 B | AG DE | FG/A/ B/c/d/e/ | f z F z |]
P:C
FC AF | c=B _BA | Gc de | (d2 c) z | FC AF | c=B _BA | Gc de | f z F z |]
P:D
A3 G | EG FD | (C4 | C)C DE | F3 A | c=B _BA | (G4 | D2) z2 |
B3 A | GF ED | (C4 | C) z d2 | c3 B | AG DE | FG/A/ B/c/d/e/ | f z F z |]
